svg/u274e.svg

<svg viewBox="0 0 128 128" xmlns="http://www.w3.org/2000/svg">
  <g>
    <path d="M116.46,3.96h-104c-4.42,0-8,3.58-8,8v104c0,4.42,3.58,8,8,8h104c4.42,0,8-3.58,8-8v-104 C124.46,7.54,120.88,3.96,116.46,3.96z" fill="#689F38"/>
    <path d="M110.16,3.96h-98.2c-4.13,0.03-7.47,3.37-7.5,7.5v97.9c-0.01,4.14,3.34,7.49,7.48,7.5 c0.01,0,0.01,0,0.02,0h98.1c4.14,0.01,7.49-3.34,7.5-7.48c0-0.01,0-0.01,0-0.02v-97.9c0.09-4.05-3.13-7.41-7.18-7.5 C110.31,3.96,110.23,3.96,110.16,3.96z" fill="#7CB342"/>
    <path d="M40.16,12.86c0-2.3-1.6-3-10.8-2.7 c-7.7,0.3-11.5,1.2-13.8,4s-2.9,8.5-3,15.3c0,4.8,0,9.3,2.5,9.3c3.4,0,3.4-7.9,6.2-12.3C26.66,17.76,40.16,15.86,40.16,12.86z" opacity="0.65" fill="#ABC884" enable-background="new "/>
    <path d="M108.71,95.08L77.54,64.2l30.88-31.17c3.5-3.53,3.47-9.23-0.06-12.73s-9.23-3.47-12.73,0.06 L64.75,51.53L33.57,20.65c-3.53-3.5-9.23-3.47-12.73,0.06c-3.5,3.53-3.47,9.23,0.06,12.73l31.18,30.88L21.19,95.5 c-3.5,3.53-3.47,9.23,0.06,12.73c1.75,1.74,4.04,2.61,6.33,2.61c2.32,0,4.63-0.89,6.39-2.67l30.89-31.18l31.18,30.88 c1.75,1.74,4.04,2.61,6.33,2.61c2.32,0,4.63-0.89,6.39-2.67C112.27,104.28,112.24,98.58,108.71,95.08z" fill="#FBF9F9"/>
    <path d="M40.16,12.86c0-2.3-1.6-3-10.8-2.7 c-7.7,0.3-11.5,1.2-13.8,4s-2.9,8.5-3,15.3c0,4.8,0,9.3,2.5,9.3c3.4,0,3.4-7.9,6.2-12.3C26.66,17.76,40.16,15.86,40.16,12.86z" opacity="0.35" fill="#ABC884" enable-background="new "/>
  </g>
</svg>

<svg viewBox="0 0 128 128" xmlns="http://www.w3.org/2000/svg">
  <defs/>
  <path d="M116.46,3.96 L12.46,3.96 C8.04,3.96 4.46,7.54 4.46,11.96 L4.46,115.96 C4.46,120.38 8.04,123.96 12.46,123.96 L116.46,123.96 C120.88,123.96 124.46,120.38 124.46,115.96 L124.46,11.96 C124.46,7.54 120.88,3.96 116.46,3.96 Z" fill="#689F38"/>
  <path d="M110.16,3.96 L11.96,3.96 C7.83,3.99 4.49,7.33 4.46,11.46 L4.46,109.36 C4.45,113.5 7.8,116.85 11.94,116.86 C11.95,116.86 11.95,116.86 11.96,116.86 L110.06,116.86 C114.2,116.87 117.55,113.52 117.56,109.38 C117.56,109.37 117.56,109.37 117.56,109.36 L117.56,11.46 C117.65,7.41 114.43,4.05 110.38,3.96 C110.31,3.96 110.23,3.96 110.16,3.96 Z" fill="#7CB342"/>
  <path d="M40.16,12.86 C40.16,10.56 38.56,9.86 29.36,10.16 C21.66,10.46 17.86,11.36 15.56,14.16 C13.26,16.96 12.66,22.66 12.56,29.46 C12.56,34.26 12.56,38.76 15.06,38.76 C18.46,38.76 18.46,30.86 21.26,26.46 C26.66,17.76 40.16,15.86 40.16,12.86 Z" fill="#ABC884" opacity="0.65"/>
  <path d="M108.71,95.08 L77.54,64.2 L108.42,33.03 C111.92,29.5 111.89,23.8 108.36,20.3 C104.83,16.8 99.13,16.83 95.63,20.36 L64.75,51.53 L33.57,20.65 C30.04,17.15 24.34,17.18 20.84,20.71 C17.34,24.24 17.37,29.94 20.9,33.44 L52.08,64.32 L21.19,95.5 C17.69,99.03 17.72,104.73 21.25,108.23 C23,109.97 25.29,110.84 27.58,110.84 C29.9,110.84 32.21,109.95 33.97,108.17 L64.86,76.99 L96.04,107.87 C97.79,109.61 100.08,110.48 102.37,110.48 C104.69,110.48 107,109.59 108.76,107.81 C112.27,104.28 112.24,98.58 108.71,95.08 Z" fill="#FBF9F9"/>
  <path d="M40.16,12.86 C40.16,10.56 38.56,9.86 29.36,10.16 C21.66,10.46 17.86,11.36 15.56,14.16 C13.26,16.96 12.66,22.66 12.56,29.46 C12.56,34.26 12.56,38.76 15.06,38.76 C18.46,38.76 18.46,30.86 21.26,26.46 C26.66,17.76 40.16,15.86 40.16,12.86 Z" fill="#ABC884" opacity="0.35"/>
</svg>
